X: 334
M:C
L:1/8
K:A
(a/2g/2f/2e/2) ca ea Tc2 | B=gg>d BGBg | (a/2g/2f/2e/2) c<a e<ac<a | A<ac<a eAc<e |
(a/2g/2f/2e/2) f>d e>d Tc2 | B=gg>d B<GB<d | (A/2B/2c/2d/2) e>A cA Tc>B | A<ag<b a<Ac<e |]


